X:1
T:Globe -- Hornpipe
Z:Bob Puckette <bpuckette:msn.com> 2003-3-10
R:hornpipe
B:Cole's 1000 Fiddle Tunes
M:2/4
L:1/16
K:Bb
vfd|B,DFB dBFD|CEAc ecAF|B,DFB DFBd|(3cdc (3BAG (3FGF (3EDC|
B,DFB dBFD|CEAc ecAF|BABd fecA|B2b2B2:|
|:((3ufga)|bfdf gfdf|bfdf gfdf|edgf edcB|AcBG Fedc|
BFGE DFGA|BFGE D2f2|edcB AFGA|B2d2B2:|
